remix/Device/u-disk-fill.svg

<svg viewBox="0 0 24 24" fill="currentColor" xmlns="http://www.w3.org/2000/svg"><path d="M4 12H20C20.5523 12 21 12.4477 21 13V21C21 21.5523 20.5523 22 20 22H4C3.44772 22 3 21.5523 3 21V13C3 12.4477 3.44772 12 4 12ZM5 2H19V10H5V2ZM9 5V7H11V5H9ZM13 5V7H15V5H13Z"/></svg>

<svg viewBox="0 0 24 24" xmlns="http://www.w3.org/2000/svg"><path fill="none" d="M0 0h24v24H0Z"/><path d="M4 12h16v0c.55 0 1 .44 1 1v8 0c0 .55-.45 1-1 1H4v0c-.56 0-1-.45-1-1v-8 0c0-.56.44-1 1-1ZM5 2h14v8H5V2Zm4 3v2h2V5H9Zm4 0v2h2V5h-2Z"/></svg>
